X: 38334
T: Stack Of Wheat, The
R: hornpipe
M: 4/4
K: Gmajor
|:BA|GEDE GABG|A/B/A GA B/c/d ef|gedB GABc|dBAG E2BA|
GEDE GABG|A/B/A GA B/c/d ef|gedB GABG|A/B/AEF G2:|
B/c/d|edBd edgd|ed B/c/d e2d/e/f|gedB GABG|dBAG E2B/c/d|
edBd edgd|ed B/c/d e2d/e/f|gedB GABG|A/B/AEF G2B/c/d|
edBd edgd|ed B/c/d e2d/e/f|gedB GABG|dBAG E2BA|
GEDE GABG|A/B/A GA B/c/d ef|gedB GABG|AGEF G2||

